X:7842
T:Tryggare kan ingen vara
C:anon.
O:Sweden
R:Hymn
Z:Transcribed by Frank Nordberg - http://www.musicaviva.com
F:http://abc.musicaviva.com/tunes/sweden/tryggare-kan-ingen.abc
M:3/4
L:1/8
Q:1/4=112
K:F
FG|"F"A2A2cA|"C"A2G2GA|"Gm"B2d2"C"cB|"F"B2A2FF|
"Bb"d2d2fd|"Bb"d2"F"c2Ac|"C7"c2B2EG|"F"G2F2|]
W:
W:
W:  From Musica Viva - http://www.musicaviva.com
W:  the Internet center for free sheet music downloads.

